X:102
T:Lord Spindle
M:C
L:1/8
B:Thompson's Compleat Collection of 200 Favourite Country Dances, vol. 3 (London, 1773)
Z:Transcribed and edited by Flynn Titford-Mock, 2007
Z:abc's:AK/Fiddler's Companion
K:G
G/G/G Bd gdcB | cBAG FAFD | G/G/G Bd ge^cg | fed^c d2D2 :|
|: d/d/d df gdcB | cBAG FAFD | G/G/G Bd gdcB | cAGF G2 [G,2G2] :|

